X: 608
%
U:~=!turn!
T: This Is No My Ain House
C:
O:Scotland
B:Keith Norman MacDonald : "The Skye collection of the best reels & strathspeys extant" : 1887
Z:Ralph Palmer
R:Reel
M:C
L:1/8
K:D
A | FAAa Tf2 (ed) | (B/c/d) (AF) BEEG | FA Da Tf2 (ed) | (B/c/d) (AG F)DD :|
A| FA-Ac (B/c/d) (AF) | GBAF BEEG | FA-Ad (B/c/d) (AF) | GBAG FDDG |
FAAd (B/c/d) (AF) | GBAF BEEG | FA Da {/f}gfed | (B/c/d) (AG) FDD |]


